X:1
T:God Answers Prayer
T:George Bennard, 1917
T:God Answers Prayer
T:Public Domain
T:Public Domain
T:Public Domain
C:George Bennard, 1917
Z:Public Domain
%%score 1 ( 2 3 )
L:1/8
M:3/4
K:C
V:1 treble 
V:2 bass 
V:3 bass 
V:1
 [EG][EG] [DF] | [CE]3 [Ec] [GB][FA] | [FA]2 [EG][EG] [EA][CE] | [B,F]3 [FA] [EG][DF] | %4
w: 1.~God an- swers|prayer, O do not|doubt Him; God an- swers|prayer, be- lieve His|
w: 2.~God an- swers|prayer, fear not to|trust Him; God an- swers|prayer, He longs to|
w: 3.~God an- swers|prayer, O child so|wear- y; God an- swers|prayer, pure you shall|
w: 4.~God an- swers|prayer, I dare be-|lieve it; God an- swers|prayer, O praise His|
w: 5.~God an- swers|prayer in times of|tri- al; God an- swers|prayer when all seems|
 [CE]3 [CE] [CE][DF] | [EG]3 [Ec] [Fc][Gc] | [Fc]2 [FA][Fc] [Fc][Fc] | [GB]3 [DB] [CA]>[CA] | %8
w: Word: God an- swers|prayer, now ven- ture|on Him, His Word the|test of time has|
w: save: God an- swers|prayer, look up be-|liev- ing, For this His|on- ly Son He|
w: be: God an- swers|prayer, His blood a-|vail- eth; From self and|sin He’ll make you|
w: name: God an- swers|prayer, and here this|mo- ment, His love sets|all my heart a-|
w: dark; God an- swers|prayer, He’ll safe- ly|guide you, He loves and|“knows the way you|
 [B,G]3 ||"^Refrain" [Fd][Fd] [FB] | [DF]3 [FA] [FA][FA] | [FA]2 [EG][Fd] [Fd][FB] | %12
w: stood.||||
w: gave.||||
w: free.|God an- swers|prayer, O soul, be-|lieve Him; God an- swers|
w: flame.||||
w: take.”||||
 [DF]3 [FA] [FA][FA] | [EG]3 [CE] [CE][DF] | [EG]3 [Ec] [Fc][Gc] | [Fc]2 [FA][Fc] [Fc][Fc] | %16
w: ||||
w: ||||
w: prayer, I’ve proved Him|true! God an- swers|prayer, now ven- ture|on Him; He an- swered|
w: ||||
w: ||||
 [Ec]3 [Fd] [FA][FB] | [Ec]3 |] %18
w: ||
w: ||
w: me, He’ll an- swer|you.|
w: ||
w: ||
V:2
 [C,C][C,C] [C,G,] | [C,G,]3 [C,G,] [C,G,](A,/B,/) | [C,C]2 [C,C][C,C] [C,C][C,G,] | %3
 [D,G,]3 [G,,G,] [G,,G,][B,,G,] | [C,G,]3 [C,G,] [C,G,][C,G,] | [C,C]3 [C,G,] [D,G,][E,G,] | %6
 [F,A,]2 [F,C][F,A,] [F,A,][F,A,] | G,3 G, [D,^F,]>[D,F,] | G,3 || [G,B,][G,B,] [G,D] | %10
 [G,B,]3 [G,,G,] [A,,G,][B,,G,] | [C,C]2 [C,C][G,B,] [G,B,][G,D] | [G,B,]3 [G,,G,] [A,,G,][B,,G,] | %13
 [C,C]3 [C,G,] [C,G,][C,G,] | [C,C]3 [C,G,] [D,G,][E,G,] | [F,A,]2 [F,C][F,A,] [F,A,][F,A,] | %16
 G,3 [G,B,] [G,B,](D/G,/) | [C,G,]3 |] %18
V:3
 x3 | x5 C, | x6 | x6 | x6 | x6 | x6 | G,3 G, x2 | G,3 || x3 | x6 | x6 | x6 | x6 | x6 | x6 | %16
 G,3 G, x2 | x3 |] %18

